X: 8
T: Kroitera    [Am]
C: Abraham Ellstein
%date: 1936
%R: sher
O: Ukraina
D: Konsonans Retro "Zagnitkiv"
Z: 2018 John Chambers <jc:trillian.mit.edu>
S: Transcription by Steve Rauch
M: 2/4
L: 1/16
K: Am
"A"|:\
"Am"cBA^G A2a2- | a2fa "A7"fed^c |\
"Dm"d3d ^cdec |  d6"D7"z2 |\
"G"dcBA G2g2- |  g2fe fedf |\
"C"e3e ^defd | e6 "(G)"z2 |
"Am"cBA^G A2a2- | a2fa "A7"fed^c |\
"Dm"d3d "A7"^cdec | "Dm"d2f2- f2z2 |\
"Am"cBA^G ABcd | "E"e^dcd cBA^G |\
"Am"A3A "E7"^GABG | "Am"A4 z4 :|
"B"|:\
"Am"^dec'2 c'2c'2 | c'2a2^g2a2 |\
"E"b8- | b4 z2a2 |\
"E"^gab2- b2a2 | g2fg fed2 |\
"Am"e2a2e2a2 | e6 z2 |\
"Am"e2a2a2a2 | a2g2"A7"f2e2 |
"Dm"f8- | f2ef gfed |\
"Am"cBA^G ABcd | "E"e^dcd cBAG |\
"Am"A3A "E"^GABG | "Am"A4 z4 :|\
"C"|:\
"Am"z2^de cdBc | A3^G ABcA |
"Dm"z2^ga fgef | d3^c defd |\
"E"z2bc' ab^ga | fgfe defd |\
"E"e^dcd cBA^G |[1 "Am"ABcd "(E7)"e4 :|[2 "Am"A4 z4 |]

%%sep 1 1 500

